X:741
T: Back To Belfast
Z: Piano Box Version by Martin Fleischmann
H: Created 2015-05-23 /  Last Modified 2015-05-23
R: reel
M: 4/4
L: 1/8
K: Ddor
AG|:DAAd c2 dA- | AGAG EcGE | DAAd c2 dA- | AG Ac d2cA |
DAAD c2 dA- | AGAG EcGE | D2dA GEcE- | EG GE D4 :|
Ac|: dcAA- AGAc | ecAA- AGAc | dcAA- AGAc | ~G2Ec ~G2Ec |
dcAA- AGAc | ecAA- AGAc | d2dA GEcE- | EG GE D4  :|

